packages/web-icons/svgs/badge_complete_1.svg

<svg xmlns="http://www.w3.org/2000/svg" viewBox="0 0 20 11" class="ridi_icon"><path d="M.619 7.005l-.18-1.127c.852 0 1.715 0 2.555-.024v-.948C1.842 4.654 1.05 3.839 1.05 2.808 1.05 1.56 2.19.613 3.725.613c1.511 0 2.65.947 2.65 2.207 0 1.032-.804 1.859-1.967 2.087v.899c.983-.048 1.895-.12 2.687-.24.036.36.048.696.096 1.056-1.871.252-5.049.383-6.572.383zm1.319 3.718V7.701h1.403V9.62h5.997v1.104h-7.4zm1.787-9.031c-.804 0-1.308.563-1.308 1.115 0 .54.504 1.115 1.308 1.115.779 0 1.283-.576 1.283-1.115 0-.551-.504-1.115-1.283-1.115zm5.361 1.979h1.403v1.151H9.086v3.322H7.683V.193h1.403v3.478z"/><path d="M11.082 5.806l-.684-1.139c1.907-.264 3.562-1.319 3.934-2.854h-3.418V.649h4.978c-.013 3.022-2.423 4.653-4.81 5.157zm1.127 5.001V7.929h5.625v-.744h-5.685V6.07h7.076v2.878h-5.601v.732h5.937v1.127h-7.352zm5.625-5.265V4.63h-2.003V3.575h2.003v-.899h-1.811V1.62h1.811V.193h1.391v5.349h-1.391z"/></svg>

<svg version="1.1" id="Layer_1" xmlns="http://www.w3.org/2000/svg" x="0px" y="0px" width="20px" height="11px" viewBox="0 0 20 11" style="enable-background:new 0 0 20 11;" xml:space="preserve"><g><path d="M0.619,7.005l-0.18-1.127c0.852,0,1.715,0,2.555-0.024V4.906C1.842,4.654,1.05,3.839,1.05,2.808c0-1.248,1.14-2.195,2.675-2.195c1.511,0,2.65,0.947,2.65,2.207c0,1.032-0.804,1.859-1.967,2.087v0.899c0.983-0.048,1.895-0.12,2.687-0.24c0.036,0.36,0.048,0.696,0.096,1.056C5.32,6.874,2.142,7.005,0.619,7.005z M1.938,10.723V7.701h1.403V9.62h5.997v1.104H1.938z M3.725,1.692c-0.804,0-1.308,0.563-1.308,1.115c0,0.54,0.504,1.115,1.308,1.115c0.779,0,1.283-0.576,1.283-1.115C5.008,2.256,4.504,1.692,3.725,1.692z M9.086,3.671h1.403v1.151H9.086v3.322H7.683V0.193h1.403V3.671z"/><path d="M11.082,5.806l-0.684-1.139c1.907-0.264,3.562-1.319,3.934-2.854h-3.418V0.649h4.978C15.879,3.671,13.469,5.302,11.082,5.806z M12.209,10.807V7.929h5.625V7.185h-5.685V6.07h7.076v2.878h-5.601V9.68h5.937v1.127H12.209z M17.834,5.542V4.63h-2.003V3.575h2.003V2.676h-1.811V1.62h1.811V0.193h1.391v5.349H17.834z"/></g></svg>
